; generated by Slic3r 1.3.1-dev (Build c2aa7e7b3b940e9f9fd5ef42384b6a025895fd6b) on 2019-12-30 at 09:59:19

; Filament notes: 
; Thin pieces like Cards etc.
; 
; Filament notes: 
; Thin pieces like Cards etc.
; 
; external perimeters extrusion width = 0.42mm (3.20mm^3/s)
; perimeters extrusion width = 0.44mm (5.07mm^3/s)
; infill extrusion width = 0.65mm (13.00mm^3/s)
; solid infill extrusion width = 0.56mm (10.41mm^3/s)
; top infill extrusion width = 0.50mm (5.88mm^3/s)

M107
G92 E0
T0
M107 ; ALL FAN OFF
M117 Preheating... 
M117 MIG-29_kit
M140 S110  ; and continue
M109 S150      ; partial hotend temp and wait
;----------------------------------------
M117 Auto leveling;
;M420 S1
G29 V3; run auto level
;----------------------------------------
M117 full heating... 
M104 S258      ; set final hotend temp and continue
G28                                  ; go to HOME
G1 X12 Y5 Z1 F300
G1 X12 Y5 Z0 F300           ; stop leaking hotend
M109 S258      ; final hotend temp and wait for it
M190 S110  ; and wait for it
M140 S115 ; did not wait full first layer to fully warming bed
;----------------------------------------
;----------------------------------------
M300 S500 P200  ; beep
;----------------------------------------
M117 Priming
;T1
;G92 E0 
;G1 X10 Y5 Z0.3 F5000
;G1 F400 E5
;G1 X200 E25 F800
;T0
;G92 E0 
;G1 X200 Y6 Z0.3 F5000
;G1 F400 E2
;G1 X10 E25 F800
;----------------------------------------
; zahradník
;G28                                  ; go to HOME
G90                                  ; absolute position
G21                                  ; milimeters
G92 E0                               ; position E0
M83                                  ; 
;T1   ; extruder E1
G1 Z0.4 F1000.0                      ; 
G1 X12.0 Y5.0 F1000.0
;G1 Y68.0 E9.0 F1000.0
;G1 Y100.0 E12.5 F1000.0
G1 Y68.0 E15.0 F1000.0
G1 Y115.0 E22 F1000.0
;T0      ; extruder E0
;G1 Y168.0 E12 F1000.0;
;G1 Y200.0 E18 F1000.0
G1 E-5 F2400  ;retract the filament a bit before lifting the nozzle  to release some of the pressure
G1 Z0.5 F1000.0                      ; 
M82
G92 E0

M117 Printing...
M117 MIG-29_kit
G0 F10000 ; Increase feed rate
;




; Filament gcode
M900 K250
; Filament gcode
M900 K250
G21 ; set units to millimeters
G90 ; use absolute coordinates
M82 ; use absolute distances for extrusion
G92 E0
G1 E-12.00000 F3600.00000
G92 E0
G1 Z0.100 F12000.000
G1 Z0.300 F12000.000
M117 0.3<MIG-29_kit

G1 Z0.400 F12000.000
G92 E0
T1
G1 E-12.00000 F3600.00000
G92 E0
G1 X87.581 Y131.774 F12000.000
G1 Z0.300 F12000.000
G1 E12.00000 F3600.00000
M201 X300 Y300
M204 P300 T300
G1 F1200.000
G1 X87.581 Y137.946 E12.44642
G1 X84.169 Y145.529 E13.04782
G1 X84.146 Y146.184 E13.09516
G1 X84.630 Y145.749 E13.14215
G1 X88.082 Y138.346 E13.73292
G1 X88.082 Y131.774 E14.20828
G1 X111.607 Y131.774 E15.90972
G1 X108.155 Y139.444 E16.51803
G1 X108.133 Y140.099 E16.56540
G1 X108.616 Y139.664 E16.61244
G1 X112.296 Y131.774 E17.24208
G1 X113.161 Y131.774 E17.30464
G1 X113.347 Y131.746 E17.31825
G1 X113.532 Y131.673 E17.33267
G1 X113.683 Y131.569 E17.34591
G1 X120.985 Y124.701 E18.07097
G1 X121.371 Y124.436 E18.10478
G1 X121.870 Y124.240 E18.14357
G1 X122.333 Y124.170 E18.17744
G1 X124.611 Y124.170 E18.34218
G1 X124.611 Y131.632 E18.88188
G1 X124.662 Y132.281 E18.92896
G1 X124.807 Y132.886 E18.97393
G1 X125.045 Y133.460 E19.01889
G1 X125.370 Y133.990 E19.06385
G1 X125.774 Y134.463 E19.10881
G1 X126.246 Y134.866 E19.15378
G1 X126.776 Y135.191 E19.19874
G1 X127.351 Y135.429 E19.24370
G1 X127.955 Y135.574 E19.28866
G1 X128.604 Y135.625 E19.33575
G1 X131.877 Y135.625 E19.57248
G1 X131.877 Y138.168 E19.75639
G1 X132.132 Y138.766 E19.80335
G1 X132.386 Y138.168 E19.85030
G1 X132.386 Y135.625 E20.03421
G1 X153.724 Y135.625 E21.57750
G1 X153.724 Y139.042 E21.82462
G1 X153.979 Y139.640 E21.87158
G1 X154.233 Y139.042 E21.91854
G1 X154.233 Y135.625 E22.16565
G1 X168.904 Y135.625 E23.22674
G1 X168.904 Y155.780 E24.68441
G1 X166.144 Y155.780 E24.88406
G1 X165.547 Y156.034 E24.93097
G1 X166.144 Y156.289 E24.97787
G1 X168.904 Y156.289 E25.17752
G1 X168.904 Y173.669 E26.43456
G1 X166.590 Y173.669 E26.60190
G1 X165.995 Y173.923 E26.64873
G1 X166.590 Y174.178 E26.69556
G1 X168.904 Y174.178 E26.86290
G1 X168.904 Y196.558 E28.48155
G1 X168.566 Y197.374 E28.54539
G1 X167.751 Y197.711 E28.60923
G1 X155.124 Y197.711 E29.52245
G1 X155.124 Y190.566 E30.03922
G1 X154.870 Y189.969 E30.08614
G1 X154.616 Y190.566 E30.13306
G1 X154.616 Y197.711 E30.64983
G1 X132.017 Y197.711 E32.28428
G1 X131.894 Y191.474 E32.73547
G1 X131.637 Y190.870 E32.78294
G1 X131.383 Y191.467 E32.82987
G1 X131.383 Y197.711 E33.28147
G1 X112.495 Y197.711 E34.64755
G1 X108.623 Y189.884 E35.27909
G1 X108.133 Y189.445 E35.32672
G1 X108.155 Y190.093 E35.37367
G1 X111.708 Y197.711 E35.98161
G1 X88.082 Y197.711 E37.69036
G1 X88.082 Y191.061 E38.17138
G1 X84.630 Y183.658 E38.76214
G1 X84.147 Y183.224 E38.80911
G1 X84.169 Y183.878 E38.85643
G1 X87.581 Y191.461 E39.45782
G1 X87.581 Y197.711 E39.90991
G1 X63.681 Y197.711 E41.63846
G1 X62.865 Y197.374 E41.70230
G1 X62.528 Y196.558 E41.76614
G1 X62.528 Y186.634 E42.48392
G1 X66.554 Y186.634 E42.77513
G1 X67.151 Y186.379 E42.82204
G1 X66.554 Y186.125 E42.86895
G1 X62.528 Y186.125 E43.16016
G1 X62.528 Y146.180 E46.04919
G1 X66.268 Y146.180 E46.31975
G1 X66.866 Y145.926 E46.36671
G1 X66.268 Y145.671 E46.41374
G1 X62.528 Y145.671 E46.68426
G1 X62.528 Y132.927 E47.60596
G1 X62.865 Y132.112 E47.66980
G1 X63.681 Y131.774 E47.73364
G1 X87.521 Y131.774 E49.45785
M201 X800 Y800
M204 P800 T800
G1 X87.085 Y132.270 F12000.000
M201 X300 Y300
M204 P300 T300
G1 F1200.000
G1 X87.085 Y137.840 E49.86074
G1 X83.677 Y145.415 E50.46150
G1 X83.611 Y147.330 E50.60011
G1 X85.036 Y146.051 E50.73863
G1 X88.577 Y138.456 E51.34467
G1 X88.577 Y132.270 E51.79213
G1 X110.840 Y132.270 E53.40228
G1 X107.663 Y139.330 E53.96221
G1 X107.601 Y141.136 E54.09294
G1 X102.703 Y136.221 E54.59476
G1 X102.386 Y135.959 E54.62454
G1 X101.982 Y135.719 E54.65849
G1 X101.529 Y135.522 E54.69423
G1 X101.078 Y135.391 E54.72818
G1 X100.670 Y135.338 E54.75796
G1 X99.920 Y135.313 E54.81221
G1 X99.719 Y134.991 E54.83964
G1 X98.143 Y134.938 E54.95373
G1 X98.024 Y135.215 E54.97551
G1 X96.729 Y135.207 E55.06918
G1 X94.996 Y135.319 E55.19483
G1 X95.744 Y139.178 E55.47911
G1 X95.341 Y139.178 E55.50827
G1 X96.609 Y145.860 E56.00019
G1 X97.015 Y145.860 E56.02957
G1 X98.736 Y156.004 E56.77376
G1 X94.779 Y155.993 E57.05995
G1 X80.832 Y145.196 E58.33564
G1 X80.577 Y145.062 E58.35647
G1 X80.297 Y145.007 E58.37713
G1 X79.914 Y145.007 E58.40479
G1 X79.528 Y145.105 E58.43362
G1 X76.889 Y146.530 E58.65054
G1 X81.206 Y155.323 E59.35903
G1 X81.632 Y155.349 E59.38991
G1 X81.637 Y155.674 E59.41340
G1 X83.965 Y156.345 E59.58866
G1 X83.965 Y156.903 E59.62899
G1 X84.259 Y157.061 E59.65309
G1 X102.773 Y157.061 E60.99212
G1 X102.773 Y159.559 E61.17282
G1 X86.382 Y159.559 E62.35828
G1 X86.382 Y163.283 E62.62761
G1 X86.084 Y163.834 E62.67290
G1 X87.275 Y164.043 E62.76037
G1 X87.275 Y165.276 E62.84950
G1 X86.084 Y165.485 E62.93696
G1 X86.382 Y166.036 E62.98226
G1 X86.382 Y169.760 E63.25159
G1 X102.773 Y169.760 E64.43705
G1 X102.773 Y172.258 E64.61775
G1 X84.259 Y172.258 E65.95678
G1 X83.965 Y172.416 E65.98088
G1 X83.965 Y172.974 E66.02121
G1 X81.637 Y173.645 E66.19647
G1 X81.632 Y173.970 E66.21996
G1 X81.206 Y173.996 E66.25084
G1 X76.889 Y182.789 E66.95933
G1 X79.528 Y184.214 E67.17624
G1 X79.914 Y184.312 E67.20507
G1 X80.297 Y184.312 E67.23273
G1 X80.577 Y184.257 E67.25340
G1 X80.832 Y184.123 E67.27423
G1 X94.779 Y173.326 E68.54992
G1 X98.736 Y173.315 E68.83611
G1 X97.015 Y183.459 E69.58030
G1 X96.609 Y183.459 E69.60967
G1 X95.341 Y190.142 E70.10160
G1 X95.744 Y190.142 E70.13076
G1 X94.996 Y194.000 E70.41504
G1 X96.729 Y194.112 E70.54069
G1 X98.024 Y194.104 E70.63436
G1 X98.143 Y194.381 E70.65614
G1 X99.719 Y194.328 E70.77022
G1 X99.920 Y194.006 E70.79765
G1 X100.670 Y193.982 E70.85191
G1 X101.078 Y193.928 E70.88169
G1 X101.529 Y193.798 E70.91564
G1 X101.982 Y193.601 E70.95137
G1 X102.386 Y193.360 E70.98533
G1 X102.703 Y193.098 E71.01510
G1 X122.418 Y173.314 E73.03514
G1 X123.390 Y173.314 E73.10540
G1 X124.100 Y173.286 E73.15682
G1 X124.939 Y173.205 E73.21780
G1 X125.779 Y173.083 E73.27915
G1 X126.486 Y172.941 E73.33130
G1 X147.711 Y167.054 E74.92440
G1 X148.340 Y166.829 E74.97270
G1 X148.848 Y166.465 E75.01788
G1 X149.248 Y165.928 E75.06631
G1 X130.071 Y165.928 E76.45329
G1 X130.071 Y163.391 E76.63672
G1 X149.248 Y163.391 E78.02370
G1 X148.848 Y162.854 E78.07213
G1 X148.340 Y162.490 E78.11730
G1 X147.711 Y162.265 E78.16561
G1 X126.486 Y156.379 E79.75870
G1 X125.779 Y156.236 E79.81086
G1 X124.939 Y156.114 E79.87220
G1 X124.100 Y156.033 E79.93318
G1 X123.390 Y156.005 E79.98460
G1 X122.418 Y156.005 E80.05486
G1 X107.657 Y141.192 E81.56733
G1 X109.023 Y139.965 E81.70014
G1 X112.611 Y132.270 E82.31426
G1 X113.198 Y132.270 E82.35669
G1 X113.476 Y132.227 E82.37703
G1 X113.766 Y132.113 E82.39955
G1 X113.995 Y131.957 E82.41963
G1 X121.297 Y125.088 E83.14469
G1 X121.605 Y124.877 E83.17166
G1 X122.000 Y124.722 E83.20235
G1 X122.371 Y124.666 E83.22949
G1 X124.115 Y124.666 E83.35567
G1 X124.115 Y131.652 E83.86094
G1 X124.171 Y132.359 E83.91225
G1 X124.334 Y133.039 E83.96286
G1 X124.602 Y133.686 E84.01346
G1 X124.968 Y134.282 E84.06407
G1 X125.422 Y134.814 E84.11467
G1 X125.954 Y135.269 E84.16528
G1 X126.551 Y135.634 E84.21588
G1 X127.197 Y135.902 E84.26648
G1 X127.877 Y136.065 E84.31709
G1 X128.585 Y136.121 E84.36841
G1 X131.382 Y136.121 E84.57070
G1 X131.382 Y138.269 E84.72608
G1 X132.132 Y140.031 E84.86452
G1 X132.882 Y138.269 E85.00297
G1 X132.882 Y136.121 E85.15835
G1 X153.229 Y136.121 E86.62994
G1 X153.229 Y139.143 E86.84852
G1 X153.979 Y140.905 E86.98699
G1 X154.729 Y139.143 E87.12546
G1 X154.729 Y136.121 E87.34403
G1 X168.409 Y136.121 E88.33343
G1 X168.409 Y155.284 E89.71941
G1 X166.043 Y155.284 E89.89053
G1 X164.284 Y156.034 E90.02883
G1 X166.043 Y156.784 E90.16713
G1 X168.409 Y156.784 E90.33826
G1 X168.409 Y173.173 E91.52360
G1 X166.489 Y173.173 E91.66243
G1 X164.734 Y173.923 E91.80050
G1 X166.489 Y174.673 E91.93857
G1 X168.409 Y174.673 E92.07740
G1 X168.409 Y196.459 E93.65308
G1 X168.187 Y196.994 E93.69494
G1 X167.652 Y197.216 E93.73680
G1 X155.620 Y197.216 E94.60704
G1 X155.620 Y190.465 E95.09528
G1 X154.870 Y188.705 E95.23363
G1 X154.120 Y190.465 E95.37198
G1 X154.120 Y197.216 E95.86022
G1 X132.503 Y197.216 E97.42368
G1 X132.388 Y191.368 E97.84667
G1 X131.637 Y189.606 E97.98520
G1 X130.887 Y191.366 E98.12355
G1 X130.887 Y197.216 E98.54663
G1 X112.802 Y197.216 E99.85460
G1 X109.025 Y189.579 E100.47077
G1 X107.598 Y188.298 E100.60949
G1 X107.663 Y190.211 E100.74793
G1 X110.930 Y197.216 E101.30691
G1 X88.577 Y197.216 E102.92355
G1 X88.577 Y190.951 E103.37667
G1 X85.036 Y183.356 E103.98270
G1 X83.612 Y182.078 E104.12116
G1 X83.677 Y183.992 E104.25971
G1 X87.085 Y191.567 E104.86047
G1 X87.085 Y197.216 E105.26901
G1 X63.779 Y197.216 E106.95459
G1 X63.245 Y196.994 E106.99645
G1 X63.023 Y196.459 E107.03831
G1 X63.023 Y187.129 E107.71312
G1 X66.655 Y187.129 E107.97580
G1 X68.414 Y186.379 E108.11412
G1 X66.655 Y185.629 E108.25243
G1 X63.023 Y185.629 E108.51511
G1 X63.023 Y146.675 E111.33245
G1 X66.369 Y146.675 E111.57447
G1 X68.128 Y145.925 E111.71274
G1 X66.369 Y145.175 E111.85102
G1 X63.023 Y145.175 E112.09301
G1 X63.023 Y133.026 E112.97174
G1 X63.245 Y132.491 E113.01360
G1 X63.779 Y132.270 E113.05546
G1 X87.025 Y132.270 E114.73670
M201 X800 Y800
M204 P800 T800
G1 X87.485 Y132.268 F12000.000
G1 F9600.000
G1 X87.085 Y137.840 E112.75211
G1 F9600.000
G1 X83.677 Y145.415 E109.79297
G1 F9600.000
G1 X83.611 Y147.330 E109.11021
G1 F9600.000
G1 X85.036 Y146.051 E108.42789
G1 F9600.000
G1 X88.577 Y138.456 E105.44277
G1 F9600.000
G1 X88.577 Y132.545 E103.33670
G1 E102.73670 F3600.00000
G92 E0
G1 Z0.400 F12000.000
G1 X94.988 Y131.278 F12000.000
G1 Z0.300 F12000.000
G1 E12.00000 F3600.00000
M201 X300 Y300
M204 P300 T300
G1 F1200.000
G1 X94.988 Y127.820 E12.25016
G1 X95.006 Y127.637 E12.26339
G1 X95.099 Y127.414 E12.28092
G1 X95.176 Y127.319 E12.28973
G1 X95.270 Y127.242 E12.29853
G1 X95.494 Y127.149 E12.31606
G1 X95.676 Y127.132 E12.32929
G1 X117.678 Y127.132 E13.92057
G1 X113.372 Y131.182 E14.34815
G1 X113.217 Y131.264 E14.36078
G1 X113.123 Y131.278 E14.36765
G1 X95.048 Y131.278 E15.67495
M201 X800 Y800
M204 P800 T800
G1 F9600.000
G1 X94.988 Y127.820 E14.44257
G1 F9600.000
G1 X95.006 Y127.637 E14.37737
G1 F9600.000
G1 X95.041 Y127.521 E14.33400
G1 F9600.000
G1 X95.099 Y127.414 E14.29062
G1 F9600.000
G1 X95.176 Y127.319 E14.24725
G1 F9600.000
G1 X95.270 Y127.242 E14.20388
G1 F9600.000
G1 X95.377 Y127.185 E14.16051
G1 F9600.000
G1 X95.494 Y127.149 E14.11714
G1 F9600.000
G1 X95.676 Y127.132 E14.05195
G1 F9600.000
G1 X117.678 Y127.132 E6.21385
G1 F9600.000
G1 X113.713 Y130.861 E4.27495
G1 E3.67495 F3600.00000
G92 E0
G1 Z0.400 F12000.000
G1 X96.946 Y140.169 F12000.000
G1 Z0.300 F12000.000
G1 E12.00000 F3600.00000
M201 X300 Y300
M204 P300 T300
G1 F1200.000
G1 X96.183 Y136.235 E12.28978
G1 X96.758 Y136.198 E12.33145
G1 X98.676 Y136.211 E12.47018
G1 X98.787 Y135.952 E12.49056
G1 X99.159 Y135.964 E12.51745
G1 X99.360 Y136.286 E12.54489
G1 X100.589 Y136.327 E12.63387
G1 X100.875 Y136.364 E12.65471
G1 X101.192 Y136.456 E12.67860
G1 X101.529 Y136.602 E12.70515
G1 X101.813 Y136.772 E12.72905
G1 X102.035 Y136.955 E12.74989
G1 X106.218 Y141.153 E13.17848
G1 X105.070 Y142.184 E13.29006
G1 X107.245 Y142.184 E13.44737
G1 X122.007 Y156.996 E14.95984
G1 X123.370 Y156.996 E15.05843
G1 X124.033 Y157.023 E15.10639
G1 X124.821 Y157.099 E15.16365
G1 X125.610 Y157.213 E15.22132
G1 X126.255 Y157.343 E15.26893
G1 X143.561 Y162.143 E16.56786
G1 X143.526 Y162.400 E16.58663
G1 X129.079 Y162.400 E17.63152
G1 X129.079 Y166.919 E17.95833
G1 X143.526 Y166.919 E19.00321
G1 X143.561 Y167.176 E19.02199
G1 X126.255 Y171.976 E20.32091
G1 X125.610 Y172.106 E20.36852
G1 X124.821 Y172.220 E20.42620
G1 X124.033 Y172.297 E20.48346
G1 X123.370 Y172.323 E20.53142
G1 X122.007 Y172.323 E20.63001
G1 X102.035 Y192.364 E22.67634
G1 X101.813 Y192.547 E22.69718
G1 X101.529 Y192.717 E22.72107
G1 X101.192 Y192.863 E22.74762
G1 X100.875 Y192.955 E22.77152
G1 X100.589 Y192.992 E22.79235
G1 X99.360 Y193.033 E22.88133
G1 X99.159 Y193.355 E22.90877
G1 X98.787 Y193.367 E22.93566
G1 X98.676 Y193.108 E22.95605
G1 X96.758 Y193.121 E23.09477
G1 X96.183 Y193.084 E23.13644
G1 X96.946 Y189.150 E23.42622
G1 X96.538 Y189.150 E23.45574
G1 X97.430 Y184.451 E23.80172
G1 X97.853 Y184.451 E23.83228
G1 X99.753 Y173.250 E24.65398
G1 X103.764 Y173.250 E24.94406
G1 X103.764 Y168.769 E25.26815
G1 X87.373 Y168.769 E26.45361
G1 X87.373 Y166.265 E26.63470
G1 X88.266 Y166.108 E26.70026
G1 X88.266 Y163.211 E26.90973
G1 X87.373 Y163.054 E26.97529
G1 X87.373 Y160.550 E27.15638
G1 X103.764 Y160.550 E28.34184
G1 X103.764 Y156.070 E28.66592
G1 X99.753 Y156.070 E28.95601
G1 X97.853 Y144.869 E29.77771
G1 X97.430 Y144.869 E29.80827
G1 X96.538 Y140.169 E30.15425
G1 X96.886 Y140.169 E30.17943
M201 X800 Y800
M204 P800 T800
G1 F9600.000
G1 X96.183 Y136.235 E28.75597
G1 F9600.000
G1 X96.758 Y136.198 E28.55071
G1 F9600.000
G1 X98.676 Y136.211 E27.86741
G1 F9600.000
G1 X98.787 Y135.952 E27.76700
G1 F9600.000
G1 X99.159 Y135.964 E27.63457
G1 F9600.000
G1 X99.360 Y136.286 E27.49938
G1 F9600.000
G1 X100.589 Y136.327 E27.06110
G1 F9600.000
G1 X100.875 Y136.364 E26.95846
G1 F9600.000
G1 X101.192 Y136.456 E26.84077
G1 F9600.000
G1 X101.529 Y136.602 E26.70999
G1 F9600.000
G1 X101.813 Y136.772 E26.59229
G1 F9600.000
G1 X102.035 Y136.955 E26.48965
G1 F9600.000
G1 X106.218 Y141.153 E24.37853
G1 F9600.000
G1 X105.070 Y142.184 E23.82894
G1 F9600.000
G1 X107.245 Y142.184 E23.05407
G1 F9600.000
G1 X115.715 Y150.683 E18.77943
G1 E18.17943 F3600.00000
G92 E0
G1 Z0.400 F12000.000
G1 X84.956 Y155.599 F12000.000
G1 Z0.300 F12000.000
G1 E12.00000 F3600.00000
M201 X300 Y300
M204 P300 T300
G1 F1200.000
G1 X82.616 Y154.924 E12.17616
G1 X82.608 Y154.415 E12.21300
G1 X81.841 Y154.369 E12.26856
G1 X78.199 Y146.949 E12.86638
G1 X79.890 Y146.035 E13.00541
G1 X80.037 Y145.998 E13.01640
